src/assets/flowerCard.svg

<svg width="46" height="53" viewBox="0 0 46 53" fill="none" xmlns="http://www.w3.org/2000/svg">
<path d="M0.25 30.5C0.25 36.4674 2.62053 42.1903 6.8401 46.4099C11.0597 50.6295 16.7826 53 22.75 53C22.75 40.5 12.675 30.5 0.25 30.5ZM22.75 11.75C24.4076 11.75 25.9973 12.4085 27.1694 13.5806C28.3415 14.7527 29 16.3424 29 18C29 19.6576 28.3415 21.2473 27.1694 22.4194C25.9973 23.5915 24.4076 24.25 22.75 24.25C21.0924 24.25 19.5027 23.5915 18.3306 22.4194C17.1585 21.2473 16.5 19.6576 16.5 18C16.5 16.3424 17.1585 14.7527 18.3306 13.5806C19.5027 12.4085 21.0924 11.75 22.75 11.75ZM6.75 23.625C6.75 25.2826 7.40848 26.8723 8.58058 28.0444C9.75268 29.2165 11.3424 29.875 13 29.875C14.325 29.875 15.55 29.45 16.5 28.775V29.25C16.5 30.9076 17.1585 32.4973 18.3306 33.6694C19.5027 34.8415 21.0924 35.5 22.75 35.5C24.4076 35.5 25.9973 34.8415 27.1694 33.6694C28.3415 32.4973 29 30.9076 29 29.25V28.775C29.95 29.45 31.175 29.875 32.5 29.875C34.1576 29.875 35.7473 29.2165 36.9194 28.0444C38.0915 26.8723 38.75 25.2826 38.75 23.625C38.75 21.125 37.275 19 35.175 18C37.275 17 38.75 14.85 38.75 12.375C38.75 10.7174 38.0915 9.12768 36.9194 7.95558C35.7473 6.78348 34.1576 6.125 32.5 6.125C31.175 6.125 29.95 6.525 29 7.225V6.75C29 5.0924 28.3415 3.50269 27.1694 2.33058C25.9973 1.15848 24.4076 0.5 22.75 0.5C21.0924 0.5 19.5027 1.15848 18.3306 2.33058C17.1585 3.50269 16.5 5.0924 16.5 6.75V7.225C15.55 6.525 14.325 6.125 13 6.125C11.3424 6.125 9.75268 6.78348 8.58058 7.95558C7.40848 9.12768 6.75 10.7174 6.75 12.375C6.75 14.85 8.225 17 10.325 18C8.225 19 6.75 21.125 6.75 23.625ZM22.75 53C28.7174 53 34.4403 50.6295 38.6599 46.4099C42.8795 42.1903 45.25 36.4674 45.25 30.5C32.75 30.5 22.75 40.5 22.75 53Z" fill="#FFC6E9"/>
</svg>

<svg xmlns="http://www.w3.org/2000/svg" width="46" height="53" fill="none"><path fill="#FFC6E9" d="M.25 30.5A22.5 22.5 0 0 0 22.75 53c0-12.5-10.075-22.5-22.5-22.5m22.5-18.75a6.25 6.25 0 1 1 0 12.5 6.25 6.25 0 0 1 0-12.5m-16 11.875a6.25 6.25 0 0 0 6.25 6.25c1.325 0 2.55-.425 3.5-1.1v.475a6.25 6.25 0 0 0 12.5 0v-.475c.95.675 2.175 1.1 3.5 1.1a6.25 6.25 0 0 0 6.25-6.25c0-2.5-1.475-4.625-3.575-5.625 2.1-1 3.575-3.15 3.575-5.625a6.25 6.25 0 0 0-6.25-6.25c-1.325 0-2.55.4-3.5 1.1V6.75a6.25 6.25 0 0 0-12.5 0v.475c-.95-.7-2.175-1.1-3.5-1.1a6.25 6.25 0 0 0-6.25 6.25C6.75 14.85 8.225 17 10.325 18c-2.1 1-3.575 3.125-3.575 5.625M22.75 53a22.5 22.5 0 0 0 22.5-22.5c-12.5 0-22.5 10-22.5 22.5"/></svg>
